material/.icons/material/orbit.svg

<svg xmlns="http://www.w3.org/2000/svg" viewBox="0 0 24 24"><path d="M8.11 1.75C9.3 1.25 10.62 1 12 1c6.08 0 11 4.92 11 11s-4.92 11-11 11S1 18.08 1 12c0-1.38.25-2.7.72-3.92a4.5 4.5 0 001.73 1.1C3.16 10.07 3 11 3 12a9 9 0 009 9 9 9 0 009-9 9 9 0 00-9-9c-1 0-1.93.16-2.82.45-.22-.62-.57-1.21-1.07-1.7M4.93 2.93a2 2 0 012 2 2 2 0 01-2 2 2 2 0 01-2-2c0-1.11.89-2 2-2M12 7a5 5 0 015 5 5 5 0 01-5 5 5 5 0 01-5-5 5 5 0 015-5z"/></svg>

<?xml version="1.0" encoding="UTF-8"?><!DOCTYPE svg PUBLIC "-//W3C//DTD SVG 1.1//EN" "http://www.w3.org/Graphics/SVG/1.1/DTD/svg11.dtd"><svg xmlns="http://www.w3.org/2000/svg" xmlns:xlink="http://www.w3.org/1999/xlink" version="1.1" id="mdi-orbit" width="24" height="24" viewBox="0 0 24 24"><path d="M8.11,1.75C9.3,1.25 10.62,1 12,1C18.08,1 23,5.92 23,12C23,18.08 18.08,23 12,23C5.92,23 1,18.08 1,12C1,10.62 1.25,9.3 1.72,8.08C2.24,8.61 2.83,8.96 3.45,9.18C3.16,10.07 3,11 3,12A9,9 0 0,0 12,21A9,9 0 0,0 21,12A9,9 0 0,0 12,3C11,3 10.07,3.16 9.18,3.45C8.96,2.83 8.61,2.24 8.11,1.75M4.93,2.93C6.03,2.93 6.93,3.82 6.93,4.93A2,2 0 0,1 4.93,6.93C3.82,6.93 2.93,6.03 2.93,4.93C2.93,3.82 3.82,2.93 4.93,2.93M12,7A5,5 0 0,1 17,12A5,5 0 0,1 12,17A5,5 0 0,1 7,12A5,5 0 0,1 12,7Z" /></svg>
